shaders/Arrakis-BMDFilm.cube
TITLE "Generated by Resolve"
LUT_3D_SIZE 5
0 0.0167239 0.0179751
0.268391 0.0266728 0.00633249
0.651759 0.137041 0.0232395
0.95317 0.33257 0.108797
1 0.601251 0.25832
0.133745 0.195026 0.122972
0.230503 0.214176 0.0959945
0.595285 0.246586 0.084062
0.930388 0.388891 0.142748
1 0.621149 0.273243
0.362539 0.465583 0.302342
0.397635 0.469459 0.279026
0.557504 0.497917 0.255116
0.89218 0.542687 0.256275
1 0.684352 0.325811
0.618387 0.745007 0.520851
0.631235 0.747646 0.511498
0.703441 0.747738 0.498299
0.8551 0.779919 0.460914
1 0.823087 0.466728
0.872602 0.970764 0.753902
0.877867 0.970123 0.752911
0.896559 0.969192 0.749615
0.949081 0.973068 0.730632
1 0.992462 0.678645
0.0663767 0.174441 0.182956
0.227985 0.152224 0.212329
0.651225 0.167544 0.214862
0.947524 0.344778 0.188983
1 0.600275 0.257359
0.123568 0.234516 0.212573
0.250324 0.234073 0.187366
0.588937 0.262806 0.188281
0.925246 0.392981 0.200443
1 0.620203 0.272511
0.371847 0.460853 0.341344
0.4065 0.465248 0.31667
0.553323 0.496162 0.294575
0.89012 0.541192 0.276585
1 0.683711 0.325246
0.618097 0.744671 0.520348
0.631174 0.747219 0.511101
0.703426 0.747463 0.497932
0.855207 0.779553 0.460624
1 0.822843 0.466438
0.872618 0.970764 0.753887
0.877882 0.970123 0.752911
0.896574 0.969192 0.749615
0.949081 0.973068 0.730617
1 0.992462 0.678645
0.201205 0.405875 0.441123
0.302892 0.390341 0.429175
0.591943 0.372335 0.520882
0.933089 0.404776 0.500923
1 0.616327 0.430655
0.192203 0.39379 0.416434
0.280003 0.387045 0.391272
0.532341 0.377264 0.452232
0.916152 0.430243 0.462623
1 0.631464 0.430716
0.371756 0.518013 0.48159
0.41973 0.511711 0.465126
0.575402 0.522484 0.440208
0.882094 0.559091 0.441779
1 0.684596 0.441749
0.641535 0.733272 0.608515
0.657099 0.734371 0.599405
0.695781 0.747768 0.568948
0.844816 0.774441 0.538338
1 0.816236 0.512276
0.872709 0.970764 0.753887
0.877989 0.970108 0.752895
0.896666 0.969177 0.749599
0.949126 0.973068 0.730602
1 0.992462 0.678645
0.369284 0.659739 0.724193
0.440253 0.647745 0.698238
0.613962 0.624918 0.747433
0.909987 0.627039 0.835035
1 0.666789 0.768582
0.379599 0.654627 0.716869
0.451591 0.64715 0.695399
0.604028 0.61767 0.732448
0.850111 0.598383 0.767132
1 0.677333 0.756603
0.388998 0.655726 0.690547
0.429511 0.649607 0.676905
0.562783 0.653178 0.654719
0.820737 0.648157 0.722225
1 0.715297 0.726818
0.650858 0.788632 0.753811
0.668025 0.786984 0.748837
0.72491 0.785748 0.735424
0.859876 0.799573 0.715129
1 0.832715 0.705394
0.891539 0.959106 0.858259
0.895155 0.959411 0.856291
0.907652 0.960937 0.849134
0.938216 0.972992 0.823255
1 0.987091 0.782605
0.559945 0.876356 0.947631
0.606775 0.86894 0.933852
0.717754 0.856107 0.936187
0.895155 0.833768 0.996078
1 0.850889 1
0.567666 0.874327 0.944411
0.613794 0.868452 0.932326
0.720699 0.855711 0.936965
0.896178 0.833616 0.996445
1 0.826001 1
0.57731 0.855375 0.921324
0.611734 0.850462 0.911025
0.693095 0.834455 0.905959
0.837095 0.804883 0.937301
1 0.823133 0.970245
0.633326 0.890455 0.923293
0.648997 0.888731 0.91957
0.701946 0.885588 0.90869
0.8327 0.890455 0.889021
1 0.889204 0.944625
0.905623 0.997375 0.970169
0.909087 0.997116 0.969177
0.922499 0.99649 0.965988
0.965133 0.996628 0.956909
1 1 0.94316
