shaders/Arrakis-BMDFilm.cube
TITLE "Generated by Resolve"
LUT_3D_SIZE 33
0 0.0167239 0.0179751
0.0124514 0.0167544 0.0142367
0.0332189 0.0149233 0.0182803
0.0623789 0.013901 0.0221866
0.101106 0.0129549 0.0195926
0.142992 0.0114137 0.0140383
0.184695 0.012314 0.00926223
0.225223 0.0183871 0.00740063
0.268391 0.0266728 0.00633249
0.313664 0.0372778 0.00622568
0.361654 0.0492866 0.00695811
0.411246 0.0605631 0.00709545
0.461021 0.0729381 0.00828565
0.510552 0.0869917 0.0104524
0.55903 0.102068 0.0136416
0.606332 0.119036 0.0180362
0.651759 0.137041 0.0232395
0.695323 0.156329 0.0296483
0.737575 0.176593 0.0373999
0.777798 0.198535 0.0460517
0.816419 0.222004 0.0559243
0.853178 0.247074 0.067277
0.888441 0.274174 0.0800793
0.921889 0.30251 0.0939651
0.95317 0.33257 0.108797
0.983108 0.363851 0.125261
1 0.396521 0.14258
1 0.430167 0.160632
1 0.463951 0.179065
1 0.498131 0.198383
1 0.532525 0.217853
1 0.566857 0.23769
1 0.601251 0.25832
0.00260929 0.029221 0.0255436
0.0213931 0.0288396 0.0212406
0.0390784 0.030457 0.0256809
0.06804 0.0304417 0.0228885
0.0993973 0.031281 0.0200961
0.134569 0.0332341 0.0176852
0.172946 0.0363165 0.0152743
0.214252 0.04094 0.0132753
0.258213 0.0476081 0.0118715
0.304555 0.0553292 0.0110933
0.352224 0.0643778 0.0104372
0.401053 0.0746014 0.0108492
0.450065 0.0859998 0.0116884
0.499168 0.0991073 0.0139162
0.547463 0.113222 0.0166629
0.595178 0.12871 0.0206455
0.641596 0.145571 0.0257725
0.686168 0.16379 0.0321813
0.729747 0.183917 0.0400854
0.770916 0.205417 0.0487526
0.810468 0.228656 0.058793
0.848325 0.253712 0.0703441
0.88426 0.280049 0.0829023
0.918074 0.308095 0.0964523
0.950683 0.337835 0.111894
0.980758 0.368826 0.127779
1 0.400946 0.145144
1 0.434104 0.163317
1 0.467384 0.181491
1 0.501167 0.200275
1 0.534905 0.219425
1 0.56907 0.23949
1 0.603113 0.259388
0.00891127 0.0456855 0.0343328
0.0292515 0.045243 0.0300298
0.0481117 0.048249 0.0252232
0.0653544 0.0517739 0.0306249
0.0967269 0.0520485 0.0272831
0.131106 0.0533913 0.0238499
0.168551 0.0563363 0.0214237
0.208774 0.0601816 0.0191348
0.251438 0.0654459 0.0174105
0.296437 0.0719768 0.016144
0.34316 0.0796063 0.0153964
0.391211 0.0884413 0.0151827
0.439841 0.0987106 0.0157626
0.489052 0.110475 0.0175326
0.537911 0.12369 0.020264
0.586007 0.138079 0.0238193
0.633097 0.154513 0.0291752
0.678843 0.172457 0.0360571
0.722683 0.191867 0.0435645
0.765301 0.213153 0.0525216
0.805417 0.235874 0.0624094
0.843961 0.260243 0.0735027
0.880491 0.286488 0.0860609
0.915267 0.313909 0.099794
0.947707 0.342992 0.114427
0.978622 0.373312 0.130449
1 0.405386 0.147539
1 0.437858 0.16553
1 0.470619 0.183444
1 0.503899 0.202121
1 0.53753 0.22121
1 0.571359 0.24094
1 0.604852 0.260624
0.0211032 0.0661631 0.0458686
0.0437781 0.0653239 0.0410315
0.0578012 0.0694896 0.034699
0.0731518 0.0726635 0.036759
0.0935225 0.0759747 0.0369421
0.12668 0.0765393 0.0342718
0.163653 0.0777142 0.0307317
0.203021 0.0799725 0.0272221
0.245457 0.083772 0.0248264
0.289693 0.0886091 0.0227512
0.335866 0.0950332 0.0215
0.383505 0.102708 0.0210117
0.432242 0.111986 0.0213474
0.481086 0.122713 0.0225986
0.530205 0.135103 0.0251469
0.578775 0.148913 0.0289464
0.626169 0.164279 0.0339971
0.672282 0.181613 0.0402228
0.717037 0.200641 0.0477302
0.759762 0.221088 0.0561685
0.801236 0.243351 0.0663157
0.840116 0.267155 0.0773632
0.877134 0.292546 0.0894179
0.912322 0.319875 0.102892
0.945571 0.348257 0.117693
0.976516 0.378195 0.133074
1 0.409323 0.150072
1 0.441566 0.167819
1 0.474052 0.185657
1 0.506905 0.20412
1 0.540169 0.223026
1 0.573602 0.242542
1 0.606744 0.262043
0.0385748 0.0873732 0.0589914
0.0588235 0.0876173 0.0534066
0.0720989 0.0911574 0.0470283
0.0870832 0.0931258 0.045716
0.0999924 0.0972457 0.0466163
0.124193 0.100237 0.0456092
0.159503 0.100679 0.0428473
0.198489 0.101991 0.0386969
0.240223 0.104311 0.0352636
0.283894 0.107912 0.0322728
0.329946 0.112963 0.0303502
0.377203 0.119371 0.0291142
0.42562 0.127337 0.0289311
0.474449 0.136904 0.0298161
0.523445 0.14818 0.0318914
0.57203 0.161151 0.035523
0.619974 0.175784 0.0402228
0.666529 0.191913 0.045716
0.711604 0.210132 0.0527047
0.755062 0.230167 0.0611734
0.79649 0.251514 0.0705425
0.836378 0.274754 0.0814069
0.87396 0.299611 0.0934462
0.909377 0.325948 0.106493
0.943023 0.354101 0.120958
0.974609 0.383413 0.136416
1 0.414023 0.152941
1 0.445853 0.17052
1 0.477714 0.188067
1 0.510155 0.206363
1 0.543008 0.22501
1 0.575967 0.244221
1 0.608835 0.2636
0.0609598 0.110903 0.073106
0.0773785 0.11194 0.0669108
0.0887922 0.114885 0.0607004
0.101747 0.11664 0.0568856
0.114549 0.118914 0.059266
0.12961 0.123995 0.0574655
0.157153 0.126223 0.0568704
0.194476 0.126909 0.0541543
0.235645 0.128283 0.0501106
0.278721 0.130434 0.0459754
0.324239 0.134203 0.0430457
0.371084 0.139193 0.0409094
0.419532 0.145907 0.0400702
0.468193 0.154238 0.0402533
0.51693 0.164187 0.0413519
0.565774 0.175921 0.0442512
0.613596 0.189471 0.0478676
0.660533 0.204761 0.0529946
0.706127 0.221653 0.0595102
0.749935 0.240742 0.0672923
0.791897 0.261372 0.0763104
0.831983 0.283803 0.0865797
0.870176 0.307683 0.0980697
0.906432 0.333562 0.111055
0.940185 0.360739 0.124926
0.972061 0.389319 0.13994
1 0.419547 0.156435
1 0.450782 0.173617
1 0.482124 0.190982
1 0.513985 0.208911
1 0.546166 0.227481
1 0.5785 0.246281
1 0.6112 0.265675
0.0842756 0.137392 0.0882734
0.0977188 0.138048 0.0821851
0.10782 0.140459 0.0761883
0.116304 0.142809 0.0713207
0.130983 0.143191 0.071046
0.143923 0.146578 0.0727855
0.161151 0.152407 0.0688334
0.192111 0.153918 0.0693065
0.231235 0.154665 0.0667277
0.27396 0.156222 0.0626383
0.31902 0.158663 0.0590066
0.36553 0.16257 0.0558175
0.413214 0.167742 0.0536965
0.461845 0.17438 0.0526131
0.510765 0.183139 0.0531624
0.55938 0.193576 0.0546731
0.607584 0.205798 0.0578775
0.654322 0.219623 0.061799
0.700221 0.235615 0.0677195
0.744671 0.253407 0.0750134
0.787335 0.273152 0.0834211
0.82771 0.294347 0.092958
0.866331 0.317678 0.104143
0.902968 0.342229 0.116442
0.937484 0.368856 0.12987
0.969589 0.396628 0.144503
0.999939 0.425711 0.160433
1 0.45623 0.17705
1 0.486915 0.194385
1 0.518212 0.211688
1 0.549874 0.229786
1 0.581918 0.248493
1 0.614099 0.267781
0.108553 0.16527 0.104952
0.120058 0.165988 0.0990463
0.128252 0.168002 0.0931411
0.13225 0.170977 0.0868696
0.147585 0.170199 0.0856336
0.161471 0.171954 0.0869917
0.175769 0.176272 0.0872816
0.195117 0.182681 0.0819257
0.228977 0.183612 0.0833448
0.269551 0.184451 0.0809644
0.314061 0.186007 0.0771344
0.359899 0.188449 0.0731365
0.407477 0.192401 0.0701305
0.455848 0.19794 0.0682078
0.50454 0.205066 0.0673838
0.553262 0.21384 0.0679942
0.601297 0.224628 0.069749
0.648417 0.237293 0.0730907
0.694667 0.251865 0.0779583
0.739116 0.268482 0.0840009
0.782086 0.286915 0.0919203
0.823194 0.306905 0.100816
0.862257 0.328984 0.111269
0.899321 0.352819 0.123018
0.934005 0.378088 0.135821
0.96669 0.404852 0.14966
0.997421 0.433433 0.165164
1 0.462959 0.181735
1 0.493019 0.198245
1 0.523507 0.215351
1 0.554452 0.233371
1 0.585901 0.251408
1 0.617487 0.270176
0.133745 0.195026 0.122972
0.143633 0.19556 0.116854
0.150134 0.196933 0.111101
0.154208 0.199191 0.105821
0.164752 0.199466 0.103105
0.180285 0.19971 0.101549
0.193454 0.202335 0.103563
0.209522 0.207294 0.102388
0.230503 0.214176 0.0959945
0.267369 0.214496 0.098436
0.309346 0.215427 0.0961929
0.354772 0.217182 0.0923171
0.402029 0.220035 0.088777
0.449729 0.224018 0.0855421
0.498375 0.229847 0.0839399
0.546792 0.237171 0.083238
0.595285 0.246586 0.084062
0.642664 0.257725 0.0863355
0.688762 0.270802 0.0900282
0.733776 0.285863 0.0953384
0.776867 0.302907 0.10193
0.818036 0.321569 0.110094
0.857664 0.34229 0.119646
0.895293 0.364904 0.130648
0.930388 0.388891 0.142748
0.963653 0.414878 0.156344
0.994553 0.442069 0.170733
1 0.470603 0.186633
1 0.499962 0.203006
1 0.529595 0.21976
1 0.559838 0.236973
1 0.590219 0.25481
1 0.621149 0.273243
0.160311 0.225986 0.142016
0.168215 0.226169 0.135973
0.173617 0.227314 0.130709
0.177157 0.229053 0.125628
0.183124 0.230549 0.121675
0.198413 0.229908 0.12015
0.213275 0.230854 0.119585
0.227497 0.234318 0.121096
0.245151 0.240131 0.118502
0.268147 0.246952 0.112352
0.307195 0.24712 0.114687
0.350332 0.248173 0.112627
0.396628 0.250019 0.109422
0.444068 0.252857 0.105501
0.492531 0.257298 0.102831
0.540932 0.263386 0.101076
0.588952 0.271122 0.100649
0.636225 0.280583 0.101625
0.682979 0.29192 0.104372
0.727962 0.305394 0.108248
0.77142 0.320974 0.113878
0.813184 0.338277 0.120974
0.852842 0.357687 0.129656
0.890776 0.378866 0.139818
0.92639 0.40148 0.150988
0.960143 0.426108 0.163729
0.991409 0.45211 0.177432
1 0.479866 0.192859
1 0.507927 0.208713
1 0.536675 0.224613
1 0.565896 0.241642
1 0.595712 0.258701
1 0.625864 0.276646
0.187411 0.257893 0.161578
0.193744 0.258198 0.155978
0.198215 0.259052 0.151217
0.20119 0.260334 0.146807
0.204044 0.262577 0.141787
0.217548 0.261646 0.140108
0.233509 0.26154 0.138003
0.248066 0.263783 0.138964
0.263157 0.267933 0.139132
0.282277 0.27393 0.135424
0.307652 0.280293 0.129778
0.347921 0.280598 0.132128
0.392035 0.281804 0.130236
0.438529 0.28397 0.126879
0.486793 0.28719 0.123796
0.534707 0.291707 0.120821
0.582971 0.298054 0.119509
0.63032 0.305974 0.119295
0.676982 0.316091 0.120851
0.722164 0.327871 0.12369
0.766033 0.341619 0.127871
0.808087 0.357351 0.134051
0.848157 0.375128 0.141466
0.886412 0.394736 0.1505
0.922118 0.415946 0.160433
0.956191 0.439139 0.172519
0.988342 0.464012 0.185626
1 0.49015 0.199908
1 0.517082 0.215106
1 0.544884 0.230854
1 0.573129 0.246983
1 0.601999 0.263783
1 0.631022 0.28098
0.215625 0.291066 0.182513
0.220478 0.291218 0.177707
0.22417 0.291783 0.173114
0.226627 0.292744 0.1691
0.229221 0.294591 0.164263
0.237797 0.29485 0.160983
0.253056 0.29424 0.159442
0.269551 0.295048 0.157046
0.283711 0.297795 0.158602
0.300252 0.302449 0.158007
0.320668 0.309056 0.15314
0.348318 0.315129 0.148394
0.389441 0.315557 0.150759
0.43444 0.316838 0.149172
0.480949 0.318868 0.14583
0.528862 0.322438 0.142596
0.576989 0.327428 0.140627
0.624323 0.333745 0.139254
0.670863 0.342336 0.139376
0.716121 0.352422 0.140902
0.760098 0.364645 0.143893
0.802731 0.378759 0.148989
0.843259 0.394781 0.155016
0.881376 0.412573 0.162646
0.91783 0.432258 0.171969
0.952331 0.453895 0.182864
0.98471 0.477211 0.195102
1 0.501915 0.208453
1 0.527794 0.222843
1 0.554269 0.237736
1 0.581445 0.252872
1 0.609079 0.26923
1 0.637308 0.285878
0.244114 0.325139 0.204746
0.247974 0.325185 0.200076
0.250736 0.325383 0.195956
0.25275 0.325994 0.191867
0.255207 0.327489 0.18764
0.259632 0.329366 0.182925
0.274083 0.328298 0.181781
0.289982 0.328237 0.179858
0.305821 0.329458 0.178378
0.321126 0.333104 0.179644
0.33872 0.338293 0.177813
0.360235 0.345159 0.17174
0.389563 0.3505 0.168063
0.431556 0.351003 0.170077
0.476722 0.352514 0.168673
0.523354 0.355123 0.165957
0.570962 0.358892 0.163226
0.618128 0.363867 0.160647
0.664912 0.370794 0.159838
0.710262 0.379217 0.160098
0.754574 0.389868 0.162234
0.796963 0.402136 0.165606
0.837568 0.416373 0.170596
0.876402 0.432563 0.176928
0.913314 0.450568 0.185245
0.947951 0.470603 0.194736
0.980636 0.492226 0.205798
1 0.515358 0.218189
1 0.540047 0.231937
1 0.564965 0.245655
1 0.590784 0.260243
1 0.617258 0.275624
1 0.644358 0.2916
0.272786 0.359579 0.227344
0.275746 0.359518 0.223468
0.27808 0.359686 0.219684
0.280385 0.360327 0.216037
0.282704 0.361578 0.212345
0.285161 0.36379 0.207263
0.296788 0.363272 0.205524
0.311406 0.362463 0.203723
0.327794 0.362905 0.200961
0.343435 0.365209 0.200519
0.359304 0.369024 0.200641
0.378088 0.374563 0.197848
0.400443 0.381765 0.191196
0.431189 0.386694 0.188098
0.473808 0.387411 0.190448
0.519005 0.388846 0.189242
0.565362 0.391684 0.186679
0.61207 0.395789 0.184192
0.658885 0.401236 0.182528
0.704295 0.408087 0.181643
0.748486 0.417136 0.182254
0.791028 0.427649 0.184268
0.831891 0.440085 0.187869
0.87129 0.454765 0.19321
0.908446 0.471 0.200198
0.943358 0.489189 0.208377
0.976181 0.508827 0.21828
1 0.530526 0.229572
1 0.553735 0.242176
1 0.577142 0.254932
1 0.601526 0.268849
1 0.626902 0.283345
1 0.652781 0.298528
0.302403 0.394629 0.251774
0.304616 0.394491 0.248112
0.306737 0.39469 0.244617
0.308843 0.395315 0.241382
0.311009 0.396445 0.237522
0.313222 0.398352 0.233143
0.320546 0.3991 0.229664
0.33431 0.397879 0.228168
0.349813 0.397742 0.226154
0.366384 0.39884 0.223255
0.381704 0.401328 0.223484
0.398657 0.405859 0.223056
0.418326 0.411749 0.219348
0.44126 0.419303 0.211673
0.473625 0.423575 0.209918
0.516182 0.424277 0.2121
0.561044 0.426108 0.211048
0.606882 0.429129 0.20885
0.652567 0.433097 0.206302
0.697948 0.438895 0.204654
0.742519 0.446235 0.204349
0.785214 0.455055 0.205158
0.826551 0.466041 0.207553
0.865827 0.478599 0.211383
0.903136 0.493034 0.216831
0.938399 0.509392 0.223636
0.971817 0.527489 0.232456
1 0.547478 0.242374
1 0.568978 0.253941
1 0.590768 0.265736
1 0.613809 0.278492
1 0.637537 0.291981
1 0.662089 0.30631
0.332158 0.430045 0.276539
0.33402 0.429969 0.273243
0.336004 0.430243 0.270268
0.337972 0.430854 0.267033
0.340017 0.431876 0.263478
0.342061 0.433356 0.259556
0.345556 0.43505 0.25478
0.358831 0.433845 0.253788
0.373083 0.433341 0.252476
0.388846 0.433677 0.25008
0.405356 0.434989 0.246311
0.420829 0.438361 0.247074
0.4383 0.442893 0.245655
0.458442 0.449104 0.241001
0.482185 0.456779 0.232624
0.515557 0.460533 0.232013
0.558099 0.461341 0.234104
0.602411 0.463325 0.233234
0.647288 0.466545 0.231373
0.69218 0.471077 0.22948
0.7364 0.477012 0.228229
0.779324 0.484184 0.227756
0.820569 0.493599 0.22884
0.859983 0.504372 0.231281
0.897566 0.51696 0.235309
0.933425 0.53167 0.241199
0.967102 0.54786 0.248356
0.99855 0.565972 0.25716
1 0.585519 0.267353
1 0.606027 0.277958
1 0.627298 0.289464
1 0.649577 0.301976
1 0.672602 0.315343
0.362539 0.465583 0.302342
0.364355 0.465675 0.29958
0.36614 0.465965 0.296513
0.367819 0.466423 0.293385
0.369635 0.467247 0.290333
0.371542 0.468727 0.286473
0.373739 0.470832 0.281849
0.384146 0.470298 0.280278
0.397635 0.469459 0.279026
0.411872 0.469093 0.276875
0.427802 0.469841 0.273884
0.444297 0.471977 0.271305
0.460288 0.475273 0.271229
0.477989 0.480247 0.268833
0.499229 0.486915 0.263615
0.5234 0.494682 0.254734
0.557504 0.497917 0.255116
0.599481 0.498894 0.257313
0.642863 0.501091 0.256703
0.686961 0.504234 0.255024
0.730358 0.508766 0.25304
0.773266 0.5149 0.25214
0.814557 0.522622 0.252323
0.8542 0.531701 0.253483
0.89218 0.542687 0.256275
0.928176 0.555444 0.260304
0.962081 0.569894 0.266117
0.99382 0.586069 0.273472
1 0.604059 0.282429
1 0.622812 0.291966
1 0.642252 0.302327
1 0.662989 0.313771
1 0.684352 0.325811
0.393164 0.501091 0.328511
0.394903 0.50135 0.32575
0.396597 0.501808 0.322972
0.398245 0.502403 0.320531
0.4 0.503258 0.31754
0.401968 0.504524 0.313954
0.403998 0.506325 0.31017
0.411353 0.506676 0.307439
0.423392 0.505684 0.306401
0.436744 0.504952 0.304601
0.451637 0.50518 0.302296
0.467491 0.506432 0.29926
0.483543 0.508644 0.296559
0.499657 0.512535 0.295796
0.518288 0.51783 0.292927
0.539467 0.524376 0.286824
0.563684 0.532311 0.27715
0.598611 0.534874 0.278965
0.639979 0.535988 0.280934
0.682307 0.538369 0.280552
0.725155 0.541848 0.279271
0.767575 0.546639 0.277943
0.808438 0.552682 0.276738
0.84831 0.560479 0.277089
0.886152 0.569665 0.278386
0.922377 0.58088 0.281361
0.956481 0.593408 0.285649
0.988617 0.607797 0.29163
1 0.623789 0.299092
1 0.64094 0.30753
1 0.658808 0.316609
1 0.677928 0.326604
1 0.697612 0.337346
0.424826 0.536934 0.355261
0.42649 0.53727 0.352865
0.428046 0.537743 0.350622
0.429541 0.538369 0.348119
0.431113 0.539193 0.345403
0.432883 0.540352 0.342153
0.434333 0.541756 0.338354
0.438941 0.542748 0.334859
0.450233 0.541695 0.33402
0.462684 0.541024 0.332753
0.476081 0.540932 0.33106
0.490822 0.54136 0.32842
0.506615 0.54284 0.324498
0.523003 0.545632 0.322683
0.539254 0.549661 0.321065
0.557794 0.555032 0.31725
0.579324 0.561685 0.310307
0.603662 0.569635 0.300237
0.638743 0.57171 0.302968
0.67924 0.572915 0.305241
0.720668 0.575357 0.305287
0.762188 0.578988 0.304006
0.802823 0.584009 0.302678
0.842603 0.590387 0.302266
0.880278 0.598016 0.302571
0.916716 0.607462 0.304372
0.951125 0.618311 0.307362
0.983703 0.631022 0.311727
1 0.64538 0.317845
1 0.660731 0.324926
1 0.67686 0.332677
1 0.693843 0.341222
1 0.712123 0.35108
0.45687 0.572732 0.382467
0.458259 0.573098 0.380331
0.45951 0.57351 0.377935
0.460746 0.573968 0.37557
0.462104 0.574746 0.373098
0.463661 0.575784 0.370459
0.465263 0.577249 0.367102
0.468284 0.578698 0.363455
0.478401 0.577691 0.362722
0.489586 0.576928 0.361791
0.501839 0.576425 0.360174
0.515373 0.576394 0.357885
0.530129 0.577356 0.355016
0.546044 0.579278 0.351049
0.561669 0.582162 0.348989
0.578347 0.586297 0.346853
0.597421 0.592126 0.342321
0.618982 0.598856 0.335027
0.643198 0.606821 0.324605
0.678386 0.608347 0.328527
0.717861 0.609689 0.33051
0.757794 0.612314 0.330526
0.797818 0.616068 0.329915
0.836789 0.620768 0.328573
0.874647 0.627298 0.328099
0.911147 0.635264 0.328847
0.945571 0.644373 0.330495
0.978424 0.655436 0.333791
1 0.667872 0.338384
1 0.681605 0.344198
1 0.696025 0.350301
1 0.711513 0.357717
1 0.727947 0.365988
0.488914 0.60798 0.409751
0.490242 0.608423 0.407782
0.491539 0.608942 0.405814
0.492683 0.609552 0.403876
0.493935 0.610254 0.401877
0.495308 0.611231 0.399237
0.49662 0.612573 0.396124
0.498421 0.614191 0.392676
0.507439 0.61326 0.392035
0.517266 0.612192 0.390875
0.528481 0.611627 0.389609
0.540871 0.611505 0.387839
0.554452 0.611978 0.385382
0.568689 0.612985 0.381765
0.584848 0.615137 0.377462
0.600198 0.618204 0.375677
0.617075 0.622904 0.37293
0.636118 0.628382 0.367895
0.657389 0.635218 0.359838
0.681193 0.643107 0.349462
0.716396 0.644236 0.353796
0.754833 0.645563 0.356268
0.793378 0.648295 0.35642
0.831678 0.652247 0.355642
0.869368 0.657313 0.35491
0.905303 0.663523 0.354574
0.940063 0.671489 0.355535
0.972778 0.680934 0.357336
1 0.691707 0.360616
1 0.703761 0.365072
1 0.716442 0.36968
1 0.730175 0.375662
1 0.744823 0.382574
0.521477 0.643229 0.4374
0.522591 0.643702 0.435645
0.523613 0.644236 0.434073
0.524636 0.644816 0.432288
0.525719 0.645502 0.43032
0.526925 0.646387 0.427955
0.527977 0.647395 0.425101
0.529427 0.648661 0.422004
0.537438 0.647791 0.421393
0.54641 0.647044 0.420478
0.556344 0.646494 0.419348
0.567361 0.64625 0.417899
0.579416 0.646296 0.415885
0.592844 0.646769 0.413123
0.607294 0.64831 0.409766
0.622995 0.650431 0.404547
0.638209 0.654093 0.402777
0.655085 0.658457 0.399542
0.674052 0.664012 0.393439
0.694957 0.670863 0.38497
0.718318 0.678523 0.375128
0.753536 0.679606 0.380316
0.79028 0.681178 0.382361
0.827314 0.683711 0.382376
0.864179 0.687587 0.382223
0.899916 0.692821 0.381598
0.934493 0.699275 0.381659
0.967025 0.707057 0.382239
0.998291 0.716381 0.38439
1 0.726909 0.387564
1 0.738018 0.391272
1 0.750042 0.395804
1 0.763149 0.401022
0.553964 0.677684 0.465339
0.554818 0.678126 0.463706
0.555734 0.678645 0.462119
0.556603 0.679194 0.460533
0.557504 0.679835 0.458762
0.558572 0.680629 0.456703
0.559457 0.681712 0.45452
0.561212 0.682826 0.451743
0.568292 0.682033 0.451194
0.57615 0.681331 0.450507
0.585016 0.680751 0.449607
0.59472 0.680156 0.448203
0.605554 0.679988 0.446433
0.617441 0.6804 0.444404
0.630671 0.681346 0.441566
0.6448 0.68278 0.437263
0.660502 0.685374 0.432761
0.675349 0.688869 0.430335
0.692485 0.693462 0.426322
0.711162 0.699184 0.42002
0.731762 0.705943 0.411231
0.754513 0.71339 0.401862
0.789044 0.713954 0.406806
0.824399 0.715587 0.409125
0.860059 0.718395 0.40943
0.895171 0.722454 0.409079
0.929168 0.727413 0.40856
0.96173 0.733928 0.40856
0.992996 0.741848 0.409979
1 0.750866 0.411963
1 0.760372 0.414038
1 0.771008 0.417441
1 0.782223 0.421317
0.586297 0.711864 0.493111
0.587121 0.712322 0.491722
0.587854 0.712825 0.490288
0.58851 0.713359 0.488884
0.589151 0.71397 0.487511
0.590082 0.714656 0.485969
0.591196 0.715526 0.483833
0.593774 0.71606 0.481956
0.599725 0.715328 0.481437
0.606378 0.714488 0.480583
0.614008 0.71397 0.479744
0.622675 0.713558 0.47866
0.63241 0.713344 0.477287
0.643168 0.713436 0.475776
0.654826 0.713664 0.473121
0.667597 0.714885 0.469917
0.681804 0.716793 0.465644
0.69659 0.719326 0.460624
0.711879 0.722835 0.457893
0.72845 0.727626 0.453498
0.746929 0.733166 0.446494
0.767086 0.739834 0.437293
0.789151 0.746975 0.428367
0.822766 0.747448 0.433661
0.856931 0.749111 0.435889
0.890974 0.751949 0.436347
0.924422 0.756024 0.436377
0.956863 0.761303 0.43621
0.987564 0.767529 0.436179
1 0.775387 0.437461
1 0.783597 0.438483
1 0.792615 0.440467
1 0.802365 0.443168
0.618387 0.745007 0.520851
0.618952 0.745464 0.519631
0.619455 0.745937 0.518669
0.620035 0.74641 0.517525
0.620661 0.746944 0.516152
0.621408 0.747616 0.514534
0.622293 0.748409 0.512612
0.626169 0.748165 0.511864
0.631235 0.747646 0.511498
0.637247 0.747082 0.510918
0.64387 0.746609 0.510246
0.651408 0.746212 0.509377
0.659922 0.745937 0.508232
0.669139 0.745602 0.506523
0.679667 0.745876 0.504707
0.691203 0.746639 0.502022
0.703441 0.747738 0.498299
0.717464 0.74966 0.49427
0.73196 0.752346 0.488884
0.747005 0.756161 0.485679
0.763333 0.760678 0.48072
0.78146 0.766155 0.473579
0.80087 0.772808 0.463828
0.822934 0.779309 0.455711
0.8551 0.779919 0.460914
0.887861 0.781781 0.463294
0.920089 0.784573 0.463783
0.951949 0.788632 0.463783
0.982712 0.793942 0.46363
1 0.800397 0.464118
1 0.807309 0.464378
1 0.814939 0.465492
1 0.823087 0.466728
0.650187 0.777661 0.549157
0.650721 0.778058 0.548196
0.651225 0.778485 0.547097
0.651713 0.778912 0.546014
0.652262 0.779385 0.544839
0.652918 0.779965 0.543435
0.655329 0.77995 0.542687
0.658961 0.779568 0.542428
0.663294 0.778973 0.541894
0.668055 0.778408 0.541299
0.673961 0.777951 0.540658
0.680446 0.777569 0.539925
0.6878 0.77731 0.538979
0.696071 0.777173 0.537911
0.705318 0.777279 0.536309
0.71545 0.777646 0.53402
0.726528 0.778363 0.530999
0.738933 0.779782 0.527413
0.751934 0.781704 0.522652
0.766415 0.784634 0.517555
0.780987 0.78819 0.513771
0.797024 0.792706 0.508171
0.814786 0.798459 0.50074
0.833783 0.804913 0.490929
0.855268 0.81091 0.483925
0.886259 0.811566 0.488594
0.917403 0.813382 0.490852
0.948089 0.816342 0.491463
0.978012 0.820172 0.491325
1 0.825483 0.491661
1 0.831418 0.491554
1 0.837491 0.491249
1 0.844526 0.491646
0.681376 0.809171 0.576791
0.681865 0.809522 0.575906
0.682368 0.809873 0.575036
0.682857 0.810208 0.574166
0.683589 0.810513 0.573312
0.685893 0.810239 0.573114
0.688396 0.81001 0.572931
0.691585 0.809659 0.572625
0.695247 0.809323 0.572198
0.699351 0.809003 0.571786
0.704311 0.808621 0.571176
0.709865 0.808301 0.57055
0.716136 0.808057 0.569787
0.723095 0.807614 0.568658
0.731212 0.807584 0.567269
0.740169 0.807828 0.565545
0.750134 0.808392 0.563348
0.760967 0.809354 0.560327
0.772763 0.810697 0.556558
0.785657 0.812955 0.551705
0.799405 0.815671 0.54609
0.813718 0.819211 0.541802
0.82948 0.823957 0.536263
0.846616 0.829328 0.528084
0.864988 0.83563 0.518151
0.886 0.841138 0.511803
0.915541 0.841856 0.516579
0.945037 0.843778 0.518853
0.974289 0.846723 0.519509
1 0.850858 0.519554
1 0.855543 0.519234
1 0.860639 0.518349
1 0.866133 0.517571
0.712627 0.839933 0.604822
0.712947 0.840269 0.604013
0.714412 0.840101 0.603845
0.715862 0.839948 0.603723
0.717311 0.839796 0.603632
0.719219 0.839567 0.603449
0.721431 0.839246 0.603189
0.723964 0.838911 0.602823
0.726757 0.83859 0.602472
