shaders/Arrakis-BMDFilm.cube
TITLE "Generated by Resolve"
LUT_3D_SIZE 9
0 0.0167239 0.0179751
0.101106 0.0129549 0.0195926
0.268391 0.0266728 0.00633249
0.461021 0.0729381 0.00828565
0.651759 0.137041 0.0232395
0.816419 0.222004 0.0559243
0.95317 0.33257 0.108797
1 0.463951 0.179065
1 0.601251 0.25832
0.0385748 0.0873732 0.0589914
0.0999924 0.0972457 0.0466163
0.240223 0.104311 0.0352636
0.42562 0.127337 0.0289311
0.619974 0.175784 0.0402228
0.79649 0.251514 0.0705425
0.943023 0.354101 0.120958
1 0.477714 0.188067
1 0.608835 0.2636
0.133745 0.195026 0.122972
0.164752 0.199466 0.103105
0.230503 0.214176 0.0959945
0.402029 0.220035 0.088777
0.595285 0.246586 0.084062
0.776867 0.302907 0.10193
0.930388 0.388891 0.142748
1 0.499962 0.203006
1 0.621149 0.273243
0.244114 0.325139 0.204746
0.255207 0.327489 0.18764
0.305821 0.329458 0.178378
0.389563 0.3505 0.168063
0.570962 0.358892 0.163226
0.754574 0.389868 0.162234
0.913314 0.450568 0.185245
1 0.540047 0.231937
1 0.644358 0.2916
0.362539 0.465583 0.302342
0.369635 0.467247 0.290333
0.397635 0.469459 0.279026
0.460288 0.475273 0.271229
0.557504 0.497917 0.255116
0.730358 0.508766 0.25304
0.89218 0.542687 0.256275
1 0.604059 0.282429
1 0.684352 0.325811
0.488914 0.60798 0.409751
0.493935 0.610254 0.401877
0.507439 0.61326 0.392035
0.554452 0.611978 0.385382
0.617075 0.622904 0.37293
0.716396 0.644236 0.353796
0.869368 0.657313 0.35491
1 0.691707 0.360616
1 0.744823 0.382574
0.618387 0.745007 0.520851
0.620661 0.746944 0.516152
0.631235 0.747646 0.511498
0.659922 0.745937 0.508232
0.703441 0.747738 0.498299
0.763333 0.760678 0.48072
0.8551 0.779919 0.460914
0.982712 0.793942 0.46363
1 0.823087 0.466728
0.745541 0.86833 0.634256
0.750622 0.86775 0.633799
0.758541 0.867033 0.633005
0.77319 0.865995 0.631037
0.798398 0.865843 0.626688
0.837018 0.869734 0.614954
0.889982 0.882521 0.592218
0.969177 0.899275 0.572534
1 0.910353 0.573053
0.872602 0.970764 0.753902
0.874525 0.97055 0.753552
0.877867 0.970123 0.752911
0.884367 0.96965 0.751965
0.896559 0.969192 0.749615
0.91725 0.969421 0.743832
0.949081 0.973068 0.730632
0.99324 0.983566 0.702693
1 0.992462 0.678645
0.0226596 0.0820783 0.0867628
0.0859236 0.0721447 0.094377
0.250736 0.0645762 0.114473
0.469703 0.0726482 0.0902571
0.654948 0.139773 0.0812848
0.814496 0.228824 0.0925765
0.953811 0.331502 0.108232
1 0.463249 0.178744
1 0.600885 0.257984
0.0343938 0.113756 0.104402
0.109133 0.114961 0.0922866
0.248539 0.11252 0.0983139
0.421775 0.13959 0.089662
0.616266 0.184298 0.0883192
0.795209 0.255192 0.0989548
0.943557 0.353124 0.120516
1 0.477043 0.18764
1 0.608454 0.263325
0.119173 0.203098 0.152483
0.178164 0.199084 0.136675
0.234531 0.215732 0.133577
0.401984 0.222339 0.124163
0.593393 0.248844 0.115053
0.775876 0.303792 0.118593
0.930739 0.38793 0.142107
1 0.499458 0.202792
1 0.620798 0.272969
0.248631 0.323461 0.223026
0.266743 0.323568 0.207935
0.306722 0.330007 0.192126
0.389075 0.350286 0.186145
0.570565 0.358495 0.176104
0.754681 0.388998 0.16408
0.913542 0.449821 0.184726
1 0.539559 0.231556
1 0.644053 0.291356
0.362387 0.46479 0.302388
0.369284 0.46659 0.289876
0.397452 0.468742 0.278462
0.460014 0.474678 0.270802
0.557687 0.497215 0.254765
0.730571 0.508156 0.252552
0.892409 0.54229 0.25597
1 0.603708 0.282139
1 0.684123 0.325597
0.488624 0.607691 0.409323
0.493706 0.609964 0.401511
0.507362 0.612909 0.391745
0.554376 0.611673 0.385077
0.616983 0.622644 0.372625
0.716472 0.643915 0.353597
0.869398 0.657069 0.354604
1 0.691478 0.360403
1 0.744671 0.382437
0.61828 0.744884 0.520668
0.620554 0.746838 0.515953
0.631205 0.747494 0.511345
0.659892 0.7458 0.50808
0.703426 0.747646 0.498161
0.763302 0.760571 0.480568
0.855131 0.779782 0.460807
0.982742 0.793835 0.463508
1 0.822995 0.466621
0.745541 0.868254 0.63418
0.750622 0.867674 0.633738
0.758526 0.866972 0.632929
0.773205 0.86595 0.630976
0.798398 0.865782 0.626612
0.837003 0.869688 0.614862
0.889982 0.882475 0.592126
0.969177 0.899214 0.572473
1 0.910307 0.572992
0.872602 0.970764 0.753887
0.874525 0.97055 0.753552
0.877867 0.970123 0.752911
0.884367 0.96965 0.751965
0.896574 0.969192 0.749615
0.91725 0.969421 0.743832
0.949081 0.973068 0.730617
0.99324 0.983566 0.702693
1 0.992462 0.678645
0.0663767 0.174441 0.182956
0.122698 0.166873 0.176455
0.227985 0.152224 0.212329
0.434592 0.142992 0.236088
0.651225 0.167544 0.214862
0.825605 0.220813 0.177951
0.947524 0.344778 0.188983
1 0.464347 0.201282
1 0.600275 0.257359
0.0620279 0.17969 0.181964
0.122271 0.177813 0.169451
0.218601 0.170077 0.192386
0.407553 0.171954 0.207034
0.627665 0.187778 0.184161
0.791379 0.267979 0.181552
0.937453 0.362173 0.191058
1 0.477516 0.205783
1 0.607813 0.262837
0.123568 0.234516 0.212573
0.173373 0.230015 0.199313
0.250324 0.234073 0.187366
0.410513 0.234119 0.197452
0.588937 0.262806 0.188281
0.769543 0.313558 0.188052
0.925246 0.392981 0.200443
1 0.499077 0.213947
1 0.620203 0.272511
0.230426 0.337972 0.268513
0.264149 0.331716 0.257343
0.320012 0.332601 0.240391
0.390249 0.35433 0.237186
0.56878 0.361456 0.227863
0.749676 0.39115 0.218982
0.909178 0.450904 0.227588
1 0.538689 0.23125
1 0.64361 0.29102
0.371847 0.460853 0.341344
0.385458 0.460273 0.331426
0.4065 0.465248 0.31667
0.462196 0.473548 0.300191
0.553323 0.496162 0.294575
0.726741 0.507103 0.28751
0.89012 0.541192 0.276585
1 0.603098 0.281621
1 0.683711 0.325246
0.494484 0.603845 0.423362
0.500267 0.605783 0.415702
0.508309 0.611139 0.403098
0.552468 0.611063 0.394232
0.61651 0.621393 0.380041
0.716365 0.643275 0.355077
0.869444 0.656626 0.354101
1 0.691096 0.360037
1 0.744396 0.382223
0.618097 0.744671 0.520348
0.620356 0.746624 0.515633
0.631174 0.747219 0.511101
0.659846 0.745556 0.507805
0.703426 0.747463 0.497932
0.763241 0.760388 0.480278
0.855207 0.779553 0.460624
0.982788 0.793637 0.46331
1 0.822843 0.466438
0.745525 0.868147 0.634058
0.750607 0.867567 0.633616
0.758511 0.86685 0.632807
0.773205 0.865858 0.630869
0.798367 0.865675 0.626474
0.836957 0.869612 0.61471
0.889967 0.882399 0.591989
0.969207 0.899123 0.572381
1 0.910231 0.572869
0.872618 0.970764 0.753887
0.87454 0.97055 0.753552
0.877882 0.970123 0.752911
0.884382 0.96965 0.751965
0.896574 0.969192 0.749615
0.917266 0.969421 0.743832
0.949081 0.973068 0.730617
0.99324 0.983566 0.702693
1 0.992462 0.678645
0.129946 0.284001 0.303426
0.176104 0.278157 0.287648
0.25304 0.264851 0.312322
0.404974 0.254719 0.356497
0.620325 0.240574 0.384909
0.80647 0.280842 0.355474
0.964736 0.32723 0.299565
1 0.47892 0.306233
1 0.600412 0.306111
0.121813 0.276204 0.290959
0.167086 0.271717 0.276829
0.23946 0.26714 0.283299
0.376791 0.257771 0.323766
0.586542 0.256291 0.346761
0.789609 0.290684 0.328634
0.946517 0.360189 0.298711
1 0.489616 0.306386
1 0.607874 0.30927
0.138201 0.300649 0.303746
0.180575 0.295521 0.290852
0.247181 0.297658 0.279133
0.37377 0.290532 0.308232
0.571771 0.295781 0.323705
0.779507 0.321004 0.304585
0.920638 0.409033 0.302358
1 0.507164 0.308461
1 0.61973 0.314656
0.242741 0.373068 0.341436
0.269841 0.367605 0.330312
0.318517 0.366064 0.318853
0.411337 0.3738 0.30576
0.574868 0.377997 0.317632
0.746349 0.407431 0.308827
0.903593 0.461204 0.309407
1 0.541909 0.317815
1 0.64239 0.324895
0.350729 0.482094 0.402655
0.371527 0.478172 0.394903
0.410086 0.474815 0.384802
0.475868 0.480003 0.364431
0.555245 0.502678 0.360723
0.72578 0.511345 0.349783
0.8851 0.542489 0.340108
1 0.601068 0.343374
1 0.682322 0.341497
0.504753 0.600107 0.473365
0.514702 0.600168 0.46685
0.529992 0.601694 0.457008
0.553201 0.610224 0.438743
0.617517 0.618555 0.422812
0.708385 0.64033 0.411978
0.862242 0.65272 0.404013
0.999054 0.687358 0.396719
1 0.743801 0.381796
0.628733 0.736004 0.548409
0.632364 0.737255 0.544259
0.637751 0.739864 0.537194
0.651545 0.744808 0.525963
0.699123 0.744778 0.518975
0.760342 0.756695 0.500557
0.852857 0.777661 0.474662
0.98291 0.79324 0.462867
1 0.822507 0.466056
0.74551 0.867903 0.633814
0.750591 0.867323 0.633356
0.758495 0.866621 0.632547
0.77322 0.865675 0.630655
0.798337 0.865476 0.6262
0.836881 0.869429 0.614374
0.889921 0.882231 0.591684
0.969268 0.898924 0.572183
1 0.910079 0.57261
0.872648 0.970764 0.753887
0.874571 0.97055 0.753552
0.877928 0.970123 0.752895
0.884413 0.96965 0.751965
0.896605 0.969192 0.749599
0.917281 0.969421 0.743816
0.949111 0.973068 0.730617
0.993255 0.983581 0.702693
1 0.992462 0.678645
0.201205 0.405875 0.441123
0.23859 0.398291 0.424643
0.302892 0.390341 0.429175
0.41268 0.373602 0.478264
0.591943 0.372335 0.520882
0.782177 0.352712 0.545296
0.933089 0.404776 0.500923
1 0.465782 0.44271
1 0.616327 0.430655
0.198474 0.397314 0.42916
0.234165 0.390295 0.413642
0.294453 0.385107 0.410819
0.393439 0.369924 0.448203
0.554604 0.364996 0.480812
0.754437 0.358862 0.507958
0.924056 0.412192 0.482826
1 0.476661 0.433967
1 0.62179 0.43032
0.192203 0.39379 0.416434
0.225391 0.387427 0.403052
0.280003 0.387045 0.391272
0.376623 0.382422 0.410407
0.532341 0.377264 0.452232
0.735119 0.384222 0.477119
0.916152 0.430243 0.462623
1 0.507774 0.433387
1 0.631464 0.430716
0.239551 0.438254 0.443244
0.264179 0.432761 0.432532
0.309285 0.430625 0.421592
0.396536 0.436316 0.408698
0.537026 0.429236 0.441138
0.727733 0.438361 0.455314
0.911086 0.470298 0.439048
1 0.560052 0.436133
1 0.650202 0.432731
0.371756 0.518013 0.48159
0.388327 0.514229 0.474235
0.41973 0.511711 0.465126
0.479149 0.512734 0.453605
0.575402 0.522484 0.440208
0.728618 0.530404 0.449836
0.882094 0.559091 0.441779
1 0.612207 0.442618
1 0.684596 0.441749
0.481712 0.625406 0.54403
0.495537 0.623514 0.539483
0.518837 0.621515 0.533349
0.565164 0.619272 0.522972
0.630488 0.627512 0.50016
0.711254 0.648859 0.493446
0.862379 0.659037 0.481926
0.994888 0.689601 0.47158
1 0.739895 0.465049
0.641535 0.733272 0.608515
0.647593 0.733516 0.605005
0.657099 0.734371 0.599405
0.673838 0.737041 0.588876
0.695781 0.747768 0.568948
0.760647 0.754665 0.554498
0.844816 0.774441 0.538338
0.973907 0.787137 0.528359
1 0.816236 0.512276
0.755825 0.855817 0.668345
0.757565 0.856443 0.666392
0.760143 0.857862 0.662623
0.765072 0.861387 0.65507
0.787991 0.861936 0.64918
0.829755 0.863783 0.641321
0.884215 0.876127 0.619821
0.964126 0.894743 0.595758
1 0.909743 0.572152
0.872709 0.970764 0.753887
0.874647 0.970535 0.753536
0.877989 0.970108 0.752895
0.884489 0.96965 0.751949
0.896666 0.969177 0.749599
0.917327 0.969421 0.743801
0.949126 0.973068 0.730602
0.993271 0.983581 0.702678
1 0.992462 0.678645
0.281315 0.533486 0.585016
0.311437 0.525048 0.569635
0.367529 0.521065 0.559731
0.454673 0.5075 0.589303
0.583047 0.487037 0.653864
0.764569 0.498695 0.685588
0.912825 0.469459 0.69424
1 0.537408 0.642573
1 0.605005 0.579141
0.286198 0.531212 0.58143
0.31667 0.523964 0.567285
0.372015 0.519722 0.560357
0.45774 0.506691 0.590311
0.575601 0.484092 0.642588
0.728527 0.48513 0.646296
0.895994 0.473182 0.66949
1 0.543374 0.632547
1 0.610574 0.574258
0.267994 0.50808 0.55053
0.294377 0.501167 0.53782
0.340902 0.498711 0.525582
0.418738 0.492927 0.535088
0.533211 0.477989 0.582589
0.69781 0.482612 0.611093
0.879835 0.489265 0.643137
1 0.554314 0.619028
1 0.620645 0.567224
0.284413 0.523537 0.553033
0.304402 0.51809 0.543053
0.343114 0.515297 0.532784
0.41622 0.518212 0.520851
0.526787 0.512566 0.548562
0.68423 0.511437 0.588922
0.866072 0.525521 0.614252
1 0.577722 0.60032
1 0.652094 0.565789
0.354208 0.579965 0.587518
0.370306 0.576379 0.580743
0.400076 0.573388 0.572183
0.458015 0.573465 0.56109
0.554131 0.580911 0.547204
0.692927 0.574289 0.580591
0.863249 0.586084 0.591485
1 0.621134 0.576486
1 0.702647 0.567819
0.509728 0.659236 0.622522
0.520653 0.657328 0.618158
0.539818 0.655512 0.612222
0.576638 0.654459 0.603555
0.637858 0.656764 0.592401
0.728084 0.667689 0.580255
0.865034 0.67686 0.584939
0.991974 0.704845 0.577996
1 0.750927 0.574151
0.619944 0.759121 0.681895
0.627848 0.758328 0.679576
0.640726 0.757336 0.676341
0.666041 0.755734 0.669825
0.713848 0.754299 0.659724
0.771634 0.764569 0.636912
0.84744 0.783352 0.625956
0.974121 0.79411 0.614221
1 0.819837 0.600793
0.7729 0.853895 0.738445
0.775784 0.854124 0.736751
0.780682 0.854322 0.7337
0.790295 0.855451 0.72871
0.806073 0.858732 0.718715
0.825483 0.869749 0.699168
0.88452 0.875319 0.686168
0.957595 0.892622 0.665583
1 0.903014 0.651698
0.873686 0.960891 0.788296
0.874449 0.961288 0.787274
0.8757 0.961975 0.785641
0.878172 0.963455 0.782101
0.882506 0.96643 0.774807
0.906554 0.964828 0.771649
0.940703 0.966476 0.761776
0.98587 0.976104 0.734997
1 0.987198 0.705989
0.369284 0.659739 0.724193
0.393484 0.651606 0.710689
0.440253 0.647745 0.698238
0.512001 0.638331 0.709178
0.613962 0.624918 0.747433
0.749432 0.61059 0.804608
0.909987 0.627039 0.835035
1 0.589426 0.826123
1 0.666789 0.768582
0.373129 0.657801 0.721325
0.398062 0.650629 0.708843
0.444556 0.647471 0.697169
0.514794 0.63769 0.70988
0.615824 0.624445 0.748119
0.75053 0.610559 0.804471
0.882078 0.61146 0.803586
1 0.593561 0.812482
1 0.670619 0.763836
0.379599 0.654627 0.716869
0.405798 0.649287 0.706127
0.451591 0.64715 0.695399
0.517555 0.635691 0.708858
0.604028 0.61767 0.732448
0.710857 0.591028 0.767758
0.850111 0.598383 0.767132
0.99736 0.603525 0.795239
1 0.677333 0.756603
0.353643 0.624338 0.674632
0.370748 0.619425 0.665934
0.404334 0.616327 0.656535
0.465812 0.616678 0.644816
0.554543 0.609964 0.66421
0.673335 0.596872 0.715312
0.828321 0.609445 0.739315
0.984909 0.625925 0.771756
1 0.690455 0.744427
0.388998 0.655726 0.690547
0.403433 0.652384 0.684382
0.429511 0.649607 0.676905
0.479957 0.648524 0.666651
0.562783 0.653178 0.654719
0.67509 0.646235 0.685863
0.820737 0.648157 0.722225
0.974792 0.666651 0.746151
1 0.715297 0.726818
0.481727 0.716014 0.725582
0.492821 0.714305 0.721889
0.511757 0.712383 0.716884
0.54815 0.710521 0.7084
0.610315 0.711666 0.697536
0.703975 0.719234 0.683818
0.830289 0.713405 0.715602
0.97464 0.727092 0.723293
1 0.757382 0.703731
0.650858 0.788632 0.753811
0.657435 0.787884 0.751766
0.668025 0.786984 0.748837
0.688563 0.785992 0.74345
0.72491 0.785748 0.735424
0.781842 0.788922 0.725307
0.859876 0.799573 0.715129
0.975311 0.809155 0.713954
1 0.832715 0.705394
0.754101 0.877379 0.808392
0.758053 0.877058 0.807324
0.764462 0.876631 0.805615
0.777203 0.875944 0.802396
0.801083 0.874861 0.79678
0.846052 0.873655 0.787411
0.893111 0.884672 0.766247
0.959731 0.900526 0.751278
1 0.908873 0.73753
0.891539 0.959106 0.858259
0.892851 0.959228 0.857527
0.895155 0.959411 0.856291
0.899519 0.959899 0.854047
0.907652 0.960937 0.849134
0.921431 0.964233 0.840604
0.938216 0.972992 0.823255
0.986465 0.976684 0.809995
1 0.987091 0.782605
0.465873 0.779599 0.850919
0.485664 0.773068 0.840879
0.523003 0.768719 0.830625
0.582818 0.7635 0.827619
0.662364 0.751919 0.848936
0.765393 0.738903 0.887984
0.892088 0.734295 0.929519
1 0.751415 0.96054
1 0.708995 0.93431
0.468772 0.777951 0.84892
0.489265 0.772335 0.839612
0.526192 0.76849 0.829816
0.584817 0.763073 0.828046
0.663783 0.751644 0.849287
0.766247 0.738659 0.888304
0.892622 0.73431 0.929488
1 0.739254 0.94229
1 0.712551 0.928069
0.473915 0.775662 0.845365
0.495567 0.771237 0.83743
0.532021 0.768048 0.828397
0.588434 0.76231 0.828565
0.666224 0.751186 0.849836
0.767559 0.738293 0.888899
0.893523 0.73431 0.929458
0.978439 0.718578 0.907378
1 0.718822 0.918914
0.484367 0.770596 0.838163
0.504753 0.766766 0.830869
0.53637 0.763195 0.821424
0.583642 0.754467 0.818128
0.646433 0.738201 0.826825
0.726833 0.717525 0.845472
0.830594 0.700191 0.873182
0.955093 0.716564 0.878859
1 0.732219 0.904875
0.452201 0.742397 0.796536
0.465187 0.739712 0.791623
0.487938 0.737148 0.785122
0.530755 0.735317 0.776028
0.600259 0.737575 0.76553
0.69044 0.730098 0.788693
0.803449 0.719158 0.83798
0.940154 0.736339 0.857481
1 0.757122 0.885527
0.508324 0.782467 0.818647
0.518318 0.78085 0.815534
0.534874 0.778653 0.810742
0.567315 0.776745 0.803738
0.622583 0.776577 0.793988
0.704875 0.781216 0.782132
0.809583 0.774334 0.813291
0.935592 0.777874 0.843961
1 0.796826 0.86334
0.617655 0.839612 0.84976
0.624308 0.838819 0.847913
0.634882 0.837842 0.845228
0.655528 0.836225 0.840085
0.693172 0.835264 0.832929
0.752636 0.836454 0.822766
0.836744 0.843519 0.809842
0.944167 0.838849 0.838575
1 0.850706 0.84126
0.784985 0.902007 0.870954
0.787961 0.901762 0.870054
0.793332 0.90135 0.868559
0.80354 0.900816 0.865858
0.822889 0.900221 0.861372
0.855314 0.900526 0.854536
0.904143 0.903914 0.846265
0.967987 0.913649 0.837873
1 0.92079 0.829557
0.876356 0.978683 0.920058
0.87805 0.9785 0.919646
0.88069 0.978241 0.918853
0.886381 0.97789 0.917372
0.897826 0.977325 0.91458
0.918334 0.976547 0.909865
0.957015 0.975479 0.901671
0.992874 0.985641 0.882902
1 0.994293 0.862242
0.559945 0.876356 0.947631
0.577371 0.872358 0.941222
0.606775 0.86894 0.933852
0.655543 0.866392 0.924865
0.717754 0.856107 0.936187
0.799176 0.845869 0.958648
0.895155 0.833768 0.996078
1 0.840452 1
1 0.850889 1
0.562524 0.875624 0.946349
0.580407 0.871885 0.940337
0.609369 0.868757 0.933288
0.657206 0.866072 0.925139
0.718715 0.855985 0.936507
0.799878 0.845777 0.958877
0.895537 0.833707 0.996201
1 0.840497 1
1 0.849332 1
0.567666 0.874327 0.944411
0.585412 0.871183 0.938933
0.613794 0.868452 0.932326
0.660182 0.865522 0.925444
0.720699 0.855711 0.936965
0.801083 0.84564 0.959274
0.896178 0.833616 0.996445
1 0.840558 1
1 0.826001 1
0.578347 0.872206 0.940932
0.595743 0.869978 0.936263
0.622751 0.867918 0.930465
0.665949 0.864485 0.926375
0.724788 0.855146 0.937911
0.803357 0.845396 0.960128
0.897551 0.833417 0.997086
1 0.840696 1
1 0.815229 0.991287
0.57731 0.855375 0.921324
0.590723 0.853208 0.917006
0.611734 0.850462 0.911025
0.646754 0.846632 0.901808
0.693095 0.834455 0.905959
0.757061 0.819944 0.916228
0.837095 0.804883 0.937301
0.936461 0.80177 0.958648
1 0.823133 0.970245
0.558968 0.846586 0.898573
0.567926 0.84506 0.895781
0.582574 0.843458 0.892256
0.61059 0.841642 0.886229
0.658091 0.840848 0.877913
0.728588 0.843717 0.868025
0.815198 0.836164 0.893339
0.917082 0.827283 0.938918
1 0.848096 0.95436
0.633326 0.890455 0.923293
0.639155 0.889769 0.921782
0.648997 0.888731 0.91957
0.668055 0.887236 0.915343
0.701946 0.885588 0.90869
0.756558 0.885756 0.899718
0.8327 0.890455 0.889021
0.924788 0.883848 0.918883
1 0.889204 0.944625
0.750439 0.943099 0.950561
0.753735 0.942718 0.949828
0.759091 0.94226 0.948592
0.769909 0.941436 0.94612
0.78999 0.940398 0.941985
0.824491 0.939605 0.935485
0.877195 0.940932 0.927062
0.948074 0.947448 0.91632
1 0.943542 0.941146
0.905623 0.997375 0.970169
0.906844 0.997253 0.969772
0.909087 0.997116 0.969177
0.913558 0.996872 0.968139
0.922499 0.99649 0.965988
0.93843 0.996094 0.962173
0.965133 0.996628 0.956909
1 0.999878 0.950805
1 1 0.94316
